X: 38901
T: Sunshine Dance
R: reel
M: 4/4
K: Amixolydian
|:A2EA cAcd|efga ecAe|d=cBG dGeG|aged- d=cBG|
ADFA BDGB|=cdea gedc|B/A/G dG eGdG|1 =c/B/A B/A/G ABGE:|2 =cedB cA .a2||
|:aged B~G3|BGBg egdB|AB=cd fged|efge a4|dega- aged|
e2de =c/B/A Bd|1 ed=ce dcBG|FGAB =cA.a2:|2 e2=ce d2Bd|=c/B/A BG A2GE||

